Sources/FrostedUI/Resources/Icons.xcassets/hashtag20.imageset/hashtag-20.svg

<svg width="20" height="20" viewBox="0 0 20 20" fill="none" xmlns="http://www.w3.org/2000/svg" data-fui-icon="true">
  <path
    d="M15.1963 2.26917C15.3036 1.86935 15.7144 1.63197 16.1143 1.73889C16.5143 1.84613 16.7517 2.25777 16.6445 2.65784L15.7725 5.9137H18.4004C18.8143 5.91404 19.1504 6.24969 19.1504 6.6637C19.1502 7.07755 18.8142 7.41335 18.4004 7.4137H15.3701L13.9551 12.6979H16.7852C17.199 12.6983 17.5352 13.0339 17.5352 13.4479C17.5351 13.8618 17.199 14.1974 16.7852 14.1979H13.5527L12.6631 17.5192C12.5557 17.919 12.1441 18.1566 11.7441 18.0494C11.3441 17.9422 11.1067 17.5305 11.2139 17.1305L12 14.1979H5.79883L4.90918 17.5192C4.80179 17.919 4.39019 18.1566 3.99023 18.0494C3.59037 17.9421 3.35286 17.5304 3.45996 17.1305L4.24609 14.1979H1.60059C1.18638 14.1979 0.850603 13.8621 0.850586 13.4479C0.850586 13.0337 1.18637 12.6979 1.60059 12.6979H4.64746L6.06348 7.4137H3.21582C2.80171 7.4137 2.46599 7.07776 2.46582 6.6637C2.46582 6.24948 2.80161 5.9137 3.21582 5.9137H6.46582L7.44238 2.26917C7.54965 1.86942 7.96052 1.6321 8.36035 1.73889C8.76045 1.8461 8.99783 2.25774 8.89062 2.65784L8.01855 5.9137H14.2197L15.1963 2.26917ZM6.20117 12.6979H12.4014L13.8174 7.4137H7.61621L6.20117 12.6979Z"
    fill="currentColor"
  />
</svg>

<svg xmlns="http://www.w3.org/2000/svg" width="20" height="20" fill="none" data-fui-icon="true" viewBox="0 0 20 20"><path fill="currentColor" d="M15.196 2.27a.75.75 0 1 1 1.449.388l-.872 3.256H18.4a.75.75 0 0 1 0 1.5h-3.03l-1.415 5.284h2.83a.75.75 0 0 1 0 1.5h-3.232l-.89 3.321a.75.75 0 0 1-1.45-.388L12 14.198H5.799l-.89 3.321a.75.75 0 0 1-1.449-.388l.786-2.933H1.601a.75.75 0 0 1 0-1.5h3.046l1.416-5.284H3.216a.75.75 0 0 1 0-1.5h3.25l.976-3.645a.75.75 0 0 1 1.449.389l-.872 3.256h6.2zM6.201 12.697h6.2l1.416-5.284h-6.2z"/></svg>
